!!!OTL: KLING KLING GLOECKCHEN
!!!ARE: Europa, Mitteleuropa, Deutschland, Erfurt
!!!SCT: K2093
!!!YEM: Copyright 1995, estate of Helmut Schaffrath.
**kern
*ICvox
*Ivox
*M2/4
*k[f#]
*G:
=1
{4g
4b
=2
4dd
8b}
{8d
=3
8g
8a
8b
8cc
=4
4dd
4b}
=5
{8dd
8cc
8b
8a
=6
4g
8r}
{8d
=7
8g
8a
8b
8cc
=8
4dd
4b}
=9
{8dd
8cc
8b
8a
=10
4g
4r}
=11
{4dd
4b
=12
8dd
8dd
4b}
=13
{8g
8a
8b
8cc
=14
8dd
8dd
4b}
=15
{8dd
8cc
8b
8a
=16
4g
8r}
{8g
=17
8dd
8dd
8b
8b
=18
8dd
8dd
4b}
=19
{8dd
16dd
16dd
8b
8b
=20
8dd
8dd
4b}
=21
{8g
8a
8b
8cc
=22
8dd
8ee
4dd}
=23
{8cc
8cc
8a
8a
=24
8g
8b
4g}
==
!!!AGN: Kinder - Lied, Reigen, Tanz - Spiel
!!!ONB: ESAC (Essen Associative Code) Database: KINDER
!!!AMT: simple duple
!!!AIN: vox
!!!EED: Helmut Schaffrath
!!!EEV: 1.0
*-
